!!!!SEGMENT: pl-cz--iii-753--001-002_zebrowski-marcin-jozef--vesperae-in-d-confitebor.krn
!!!cenid: 17xx:2373
!!!COM: Żebrowski, Marcin Józef
!!!COM-rismID: pe30020322
!!!CDT: 1702-1770/06/29
!!!CNT: Polish
!!!OPR: Vesperae in D
!!!OTL: Confitebor
!!!OMV: 002
!!!PDT:
!!!AGN:
!!!SMS-siglum: PL-CZ
!!!SMS-shelfmark: III-753
!!!SMS-shelfwork: 001-002 M
!!!SMS-variant:
!!!SMS-altvar:
!!!NIFC-rismSourceID: 300033504
!!!NIFC-rismChildID: 300033505
!!!NIFC-islandoraID: pl-cz:25492
!!!URL-pdf-islandora: https://repozytorium.nifc.pl/islandora/object/pl-cz%3A25492/datastream/PDF/view
!!!URL-scan: https://polish.musicsources.pl/pl/lokalizacje/galeria/rekopisy/1484 @EN{Scan on Polish Music Sources Website} @PL{Skany w portalu Dziedzictwo Muzyki Polskiej w otwartym dostępie}
!!!IIIF:
!!!ONB-nifc: UWAGA: części Nieszporów: 1. Dixit Dominus, 2. Confitebor, 3. Beatus vir, 4. Laudate pueri, 5. Laudate Dominum, 6. Credidi, 7. In convertendo, 8. Domine probasti me, 9. Laetatus sum, 10. Nisi Dominus, 11. Lauda Jerusalem, 12. Magnificat, 13. Quia respexit, 14. Deposuit potentes, 15. Gloria patri
!!!AIN: 1 alto 1 bass 2 clrno 1 fagot 1 organ 1 soprn 1 tenor 2 violn
!!!key: e
!!!OMD:
!!!OMD-mod: Allegro
!!!filter-modern: sic -sq | shed -e "s/TX(.*):t=P:/tx$1:t=P:/LG" | shed -e "s/^(\d+[\/\\]right)/$1yy/I;s/^(\d+[\/\\]left)/$1yy/I" | shed -e "s/:rj/:RJ/L" | shed -k -e "s/([^a-gA-Gn#X-])[<>]/$1/g" | shed -e "s/LO:DY:(a|b|rj)/LO:dy:$1/L" | shed -e "s/-//B" | modori -m | tie -s| autostem -r | humtr -p
**kern	**fba	**kern	**kern	**kern	**text	**kern	**text	**kern	**text	**kern	**text	**kern	**kern	**kern
*	*	*group3	*group3	*group2	*	*group2	*	*group2	*	*group2	*	*group1	*group1	*
*part10	*part10	*part9	*part8	*part7	*part7	*part6	*part6	*part5	*part5	*part4	*part4	*part3	*part2	*part1
*staff10	*	*staff9	*staff8	*staff7	*staff7	*staff6	*staff6	*staff5	*staff5	*staff4	*staff4	*staff3	*staff2	*staff1
*I"Organo.	*	*I"Violino Secondo.	*I"Violino Primo.	*I"Baſso.	*	*I"Tenore.	*	*I"Alto.	*	*I"Canto.	*	*I"Clarino Secondo ex D.	*I"Clarino Primo ex D	*I"Baſsone.
*I'org	*	*I'vl 2	*I'vl 1	*I'B	*	*I'T	*	*I'A	*	*I'S	*	*I'clno 2 in D	*I'clno 1 in D	*I'fag
*Iorgan	*	*Ivioln	*Ivioln	*Ibass	*	*Itenor	*	*Ialto	*	*Isoprn	*	*Iclrno	*Iclrno	*Ifagot
*ICklav	*	*ICstr	*ICstr	*ICvox	*	*ICvox	*	*ICvox	*	*ICvox	*	*ICbras	*ICbras	*ICww
*IGcont	*	*	*	*IGcoro	*	*IGcoro	*	*IGcoro	*	*IGcoro	*	*	*	*
*mI"Organo	*	*mI"Violino II	*mI"Violino I	*mI"Basso	*	*mI"Tenore	*	*mI"Alto	*	*mI"Soprano	*	*mI"Clarino II in D	*mI"Clarino I in D	*mI"Fagotto
*	*	*	*	*	*	*	*	*	*	*	*	*tacet	*tacet	*
*clefF4	*	*clefG2	*clefG2	*clefF4	*	*clefC4	*	*clefC3	*	*clefC1	*	*clefG2	*	*clefF4
*	*	*	*	*	*	*mclefGv2	*	*mclefG2	*	*mclefG2	*	*	*	*
*k[f#]	*	*k[f#]	*k[f#]	*k[f#]	*	*k[f#]	*	*k[f#]	*	*k[f#]	*	*	*	*k[f#]
*e:	*	*e:	*e:	*e:	*	*e:	*	*e:	*	*e:	*	*	*	*e:
*M2/2	*	*M2/2	*M2/2	*M2/2	*	*M2/2	*	*M2/2	*	*M2/2	*	*	*	*M2/2
*met(c|)	*	*met(c|)	*met(c|)	*met(c|)	*	*met(c|)	*	*met(c|)	*	*met(c|)	*	*	*	*met(c|)
*mmet(c|)	*	*mmet(c|)	*mmet(c|)	*mmet(c|)	*	*mmet(c|)	*	*mmet(c|)	*	*mmet(c|)	*	*	*	*mmet(c|)
=1	=1	=1	=1	=1	=1	=1	=1	=1	=1	=1	=1	=1	=1	=1
*2\right	*	*	*	*	*	*	*	*	*	*	*	*	*	*2\right
!	!	!	!	!	!	!	!	!	!	!	!	!	!	!LO:MO:mod=!LO&colon;TX&colon;i&colon;a&colon;t=Tutti
!LO:TX:b:i:t=tutti.:mod=Tutti	!	!LO:TX:b:i:t=Allo.:mod=	!	!LO:TX:a:t=10.:mod=	!	!LO:TX:a:t=9.:mod=	!	!LO:TX:b:i:t=allo.:mod=	!	!	!	!	!	!LO:TX:b:i:t=Tutti.
!LO:TX:a:i:t=allo.:mod=	!	!LO:TX:a:t=1.:mod=	!LO:TX:a:i:t=allo.:mod=	!LO:TX:b:i:t=Allo.:mod=	!	!LO:TX:a:i:t=Allo.:mod=	!	!LO:TX:a:t=1.:mod=	!	!LO:TX:a:i:t=allo.:mod=	!	!LO:TX:t=P:problem:brak informacji o partii w części "Confitebor"	!LO:TX:t=P:problem:brak informacji o partii w części "Confitebor" 	!LO:TX:a:i:t=allo.:mod=
2E\	.	1r	1b	00r	.	00r	.	1r	.	1b	Con-	1ryy	1ryy	2E\
!LO:TX:a:t=8.:mod=	!	!	!	!	!	!	!	!	!	!	!	!	!	!
2r	.	.	.	.	.	.	.	.	.	.	.	.	.	2r
=2	=2	=2	=2	=2	=2	=2	=2	=2	=2	=2	=2	=2	=2	=2
00r	.	4r	1cc	.	.	.	.	2r	.	1cc	.	1ryy	1ryy	00r
.	.	4e/	.	.	.	.	.	.	.	.	.	.	.	.
.	.	4e/	.	.	.	.	.	4e\	Ti-	.	.	.	.	.
.	.	4f#/	.	.	.	.	.	4f#\	-bi	.	.	.	.	.
=3	=3	=3	=3	=3	=3	=3	=3	=3	=3	=3	=3	=3	=3	=3
*	*	*	*	*	*	*	*	*2\right	*	*	*	*	*	*
.	.	4g/	4b/	.	.	.	.	2.g\	Do-	4b\	.	1ryy	1ryy	.
.	.	4g/	4e/	.	.	.	.	.	.	4e/	-fi-	.	.	.
*	*	*	*2\right	*	*	*	*	*	*	*2\right	*	*	*	*
.	.	4g/	[2ee\	.	.	.	.	.	.	[2ee\	-te-	.	.	.
.	.	8f#/L	.	.	.	.	.	8f#\L	-mi-	.	.	.	.	.
.	.	8e/J	.	.	.	.	.	8e\J	.	.	.	.	.	.
=4	=4	=4	=4	=4	=4	=4	=4	=4	=4	=4	=4	=4	=4	=4
.	.	4f#/	2ee\]	.	.	.	.	2f#\	-ne	2ee\]	.	1ryy	1ryy	.
.	.	4B/	.	.	.	.	.	.	.	.	.	.	.	.
.	.	4r	2dd#X\	.	.	.	.	4r	.	2dd#X\	.	.	.	.
.	.	4b\	.	.	.	.	.	4b\	in	.	.	.	.	.
=5	=5	=5	=5	=5	=5	=5	=5	=5	=5	=5	=5	=5	=5	=5
.	.	4cc\	2.ee\	00r	.	00r	.	4cc\	to-	2ee\	-bor	1ryy	1ryy	.
.	.	4cc\	.	.	.	.	.	4cc\	-to	.	.	.	.	.
.	.	4cc\	.	.	.	.	.	4cc\	cor-	2r	.	.	.	.
.	.	8b\L	4ff#\	.	.	.	.	8b\L	-de	.	.	.	.	.
.	.	8a\J	.	.	.	.	.	8a\J	.	.	.	.	.	.
=6	=6	=6	=6	=6	=6	=6	=6	=6	=6	=6	=6	=6	=6	=6
*	*	*2\right	*	*	*	*	*	*	*	*	*	*	*	*
00r	.	2.b\	4gg\	.	.	.	.	2.g\	me-	2.b\	in	1ryy	1ryy	00r
.	.	.	4gg\	.	.	.	.	.	.	.	.	.	.	.
.	.	.	4gg\	.	.	.	.	.	.	.	.	.	.	.
.	.	4cc#X\	8ff#\L	.	.	.	.	8f#\L	.	4cc#X\	con-	.	.	.
.	.	.	8ee\J	.	.	.	.	8e\J	.	.	.	.	.	.
=7	=7	=7	=7	=7	=7	=7	=7	=7	=7	=7	=7	=7	=7	=7
.	.	4dd\	4ff#\	.	.	.	.	4f#\	.	4dd\	-ci-	1ryy	1ryy	.
.	.	4dd\	4b\	.	.	.	.	4B/	.	4dd\	-li-	.	.	.
.	.	4dd\	[2bb\	.	.	.	.	[2b\	.	4dd\	-o	.	.	.
.	.	8cc#X\L	.	.	.	.	.	.	.	8cc#X\L	jus-	.	.	.
.	.	8b\J	.	.	.	.	.	.	.	8b\J	.	.	.	.
=8	=8	=8	=8	=8	=8	=8	=8	=8	=8	=8	=8	=8	=8	=8
.	.	4cc#X\	2bb\]	.	.	.	.	2b\]	.	4cc#X\	-to-	1ryy	1ryy	.
.	.	8dd#X\L	.	.	.	.	.	.	.	8dd#X\L	.	.	.	.
.	.	8ee\J	.	.	.	.	.	.	.	8ee\J	.	.	.	.
.	.	4ff#\	[2aa\	.	.	.	.	[2a\	.	4ff#\	-rum	.	.	.
.	.	4ee\	.	.	.	.	.	.	.	4ee\	et	.	.	.
=9	=9	=9	=9	=9	=9	=9	=9	=9	=9	=9	=9	=9	=9	=9
.	.	4dd#X\	2aa\]	0r	.	1r	.	2a\]	.	4dd#X\	con-	1ryy	1ryy	.
.	.	4b\	.	.	.	.	.	.	.	4b\	-gre-	.	.	.
.	.	[2ee\	2gg\	.	.	.	.	2g\	.	4.ee\	-ga-	.	.	.
.	.	.	.	.	.	.	.	.	.	8ee\	-ti-	.	.	.
!LO:MO:mod=*null:null	!	!	!	!	!	!	!	!	!	!	!	!	!	!LO:MO:mod=*null:null
*clefC4	*	*	*	*	*	*	*	*	*	*	*	*	*	*clefC4
=10	=10	=10	=10	=10	=10	=10	=10	=10	=10	=10	=10	=10	=10	=10
1B	4	2ee\]	1ff#	.	.	1B	Ma-	1f#	.	(2ee\	-o-	1ryy	1ryy	1B
.	#	2dd#X\	.	.	.	.	.	.	.	2dd#X\)	.	.	.	.
!	!	!	!	!	!	!	!	!LO:LB:g=original	!	!	!	!	!	!
=11	=11	=11	=11	=11	=11	=11	=11	=11	=11	=11	=11	=11	=11	=11
4c\	.	4ee\	2ee\	4r	.	1c	.	2e\	-o	2ee\	-ne	1ryy	1ryy	4c\
!LO:MO:mod=*null:null	!	!	!	!	!	!	!	!	!	!	!	!	!	!LO:MO:mod=*null:null
*clefF4	*	*	*	*2\right	*	*	*	*	*	*	*	*	*	*clefF4
4E\	6	4g/	.	2E\	Ma-	.	.	.	.	.	.	.	.	4E\
4E\	.	4g/	2r	.	.	.	.	2r	.	(>4g/	ma-	.	.	4E\
4F#\	.	4f#/	.	4F#\	.	.	.	.	.	4f#/)	.	.	.	4F#\
!	!	!LO:LB:g=original	!	!	!	!	!	!	!	!	!	!	!	!
=12	=12	=12	=12	=12	=12	=12	=12	=12	=12	=12	=12	=12	=12	=12
4G\	6	2e/	4r	4G\	.	4B\	.	4r	.	2e/	-gna	1ryy	1ryy	4G\
4G\	.	.	4b/	4G\	-gna	4E/	-gna	2b\	ex-	.	.	.	.	4G\
*	*	*	*	*	*	*2\right	*	*	*	*	*	*	*	*
!	!	!	!LO:LB:g=original	!	!	!	!	!	!	!	!	!	!	!
4G\	.	2r	4b/	4G\	o-	[2e\	o-	.	.	2r	.	.	.	4G\
8F#\L	.	.	8a/L	8F#\L	.	.	.	8a\L	-qui-	.	.	.	.	8F#\L
8E\J	.	.	8g/J	8E\J	.	.	.	8g\J	.	.	.	.	.	8E\J
!	!	!	!	!	!	!	!	!	!	!LO:LB:g=original	!	!	!	!
=13	=13	=13	=13	=13	=13	=13	=13	=13	=13	=13	=13	=13	=13	=13
4F#\	7	2r	4a/	4F#\	.	2e\]	.	(4a\	-si-	2r	.	1ryy	1ryy	4F#\
4BB/	.	.	4ff#\	4BB/	.	.	.	4f#\)	.	.	.	.	.	4BB/
4B\	#	[2b/	4ff#\	4B\	.	2d#X\	-pe-	4f#\	-ta	[2b\	ex-	.	.	4B\
4A\	.	.	4ff#\	4A\	.	.	.	4f#\	in	.	.	.	.	4A\
=14	=14	=14	=14	=14	=14	=14	=14	=14	=14	=14	=14	=14	=14	=14
2.G\	6	4b/]	4gg\	2.G\	.	4e\	-ra,	4g\	om-	4b\]	.	1ryy	1ryy	2.G\
.	.	4b/	4ee\	.	.	4E/	con-	4e\	-nes	4b\	-qui-	.	.	.
.	.	4b/	[2bb\	.	.	4E/	-feſ-	[2b\	vo-	4b\	-si-	.	.	.
4F#\	.	4a/	.	4F#\	-pe-	4F#/	-si-	.	.	4a\	-ta	.	.	4F#\
=15	=15	=15	=15	=15	=15	=15	=15	=15	=15	=15	=15	=15	=15	=15
1E	.	4g/	4bb\]	1E	-ra	4G/	-o	4b\]	.	(>4g/	in	1ryy	1ryy	1E
.	.	4e/	4bb\	.	.	4G/	et	4b\	-lun-	4e/)	.	.	.	.
.	.	[2ee\	4bb\	.	.	4G/	ma-	4b\	-ta-	[2ee\	o-	.	.	.
.	.	.	8aa\L	.	.	8F#/	-gni-	8a\L	-tes	.	.	.	.	.
.	.	.	8gg\J	.	.	8E/	-fi-	8g\J	.	.	.	.	.	.
=16	=16	=16	=16	=16	=16	=16	=16	=16	=16	=16	=16	=16	=16	=16
1BB	4	2ee\]	4ff#\	2.BB/	Do-	4.F#/	-cen-	4f#\	e-	2ee\]	.	1ryy	1ryy	1BB
.	.	.	8gg\L	.	.	.	.	8g\L	.	.	.	.	.	.
.	.	.	8aa\J	.	.	8F#/	-ti-	8a\J	.	.	.	.	.	.
.	n	[2ddn\	4bb\	.	.	2F#/	-a	4b\	.	[2ddn\	.	.	.	.
.	.	.	4aa\	4BB/	-mi-	.	.	4a\	.	.	.	.	.	.
=17	=17	=17	=17	=17	=17	=17	=17	=17	=17	=17	=17	=17	=17	=17
2E\	7 #	4dd\]	4gg#X\	1E	-ni	4r	.	4g#X\	.	4dd\]	.	1ryy	1ryy	2E\
.	.	4dd\	4aa\	.	.	2G#X/	o-	4a\	.	4dd\	-mnes	.	.	.
2EE/	.	4dd\	[2bb\	.	.	.	.	[2b\	.	4dd\	vo-	.	.	2EE/
.	.	8cc\L	.	.	.	8A\L	-pus	.	.	8cc\L	-lun-	.	.	.
.	.	8b\J	.	.	.	8B\J	.	.	.	8b\J	.	.	.	.
=18	=18	=18	=18	=18	=18	=18	=18	=18	=18	=18	=18	=18	=18	=18
4r	.	4cc\	4bb\]	4r	.	2A/	e-	4b\]	.	2cc\	-ta-	1ryy	1ryy	4r
4AA/	.	4c/	4aa\	2AA/	et	.	.	2a\	.	.	.	.	.	4AA/
4AA/	.	2cc\	4aa\	.	.	2E/	-jus	.	.	2cc\	-tes	.	.	4AA/
8BB/L	.	.	4ggn\	8BB/L	jus-	.	.	4gn\	.	.	.	.	.	8BB/L
8C/J	.	.	.	8C/J	.	.	.	.	.	.	.	.	.	8C/J
!	!	!	!	!LO:LB:g=original	!	!	!	!	!	!	!	!	!	!
=19	=19	=19	=19	=19	=19	=19	=19	=19	=19	=19	=19	=19	=19	=19
2D\	7	4r	4ff#\	4.D/	-ti-	4r	.	4f#\	.	4r	.	1ryy	1ryy	2D\
*	*	*	*	*	*	*	*	*	*	*	*ij	*	*	*
.	.	4cc\	4gg\	.	.	2F#/	ma-	4g\	.	2cc\	vo-	.	.	.
.	.	.	.	8D/	-ti-	.	.	.	.	.	.	.	.	.
2DD/	.	4cc\	[2aa\	2D/	-a	.	.	[2a\	.	.	.	.	.	2DD/
.	.	8b/L	.	.	.	8G/L	.	.	.	8b\L	-lun-	.	.	.
.	.	8a/J	.	.	.	8A/J	.	.	.	8a\J	.	.	.	.
!	!	!	!	!	!	!LO:LB:g=original	!	!	!	!	!	!	!	!
=20	=20	=20	=20	=20	=20	=20	=20	=20	=20	=20	=20	=20	=20	=20
4r	.	4b/	4aa\]	4r	.	2.D/	-net	4a\]	.	4b\	-ta-	1ryy	1ryy	4r
4G\	6	4g/	8gg\L	2G\	e-	.	.	8g\L	.	4g/	-tes	.	.	4G\
*	*	*	*	*	*	*	*	*	*	*	*Xij	*	*	*
.	.	.	8ff#\J	.	.	.	.	8f#\J	.	.	.	.	.	.
4G\	.	[2ee\	4gg\	.	.	.	.	2g\	-jus	[2ee\	e-	.	.	4G\
!	!	!	!	!	!	!	!	!	!	!	!	!	!	!LO:TX:t=P:problem:dźwięk nieczytelny [defekt źródła]
!	!	!	!	!	!	!	!	!	!	!	!	!	!	!LO:SIC:s=4G
4G\	.	.	4g/	4G\	-jus	4B\	in	.	.	.	.	.	.	4G\yy
!	!	!	!	!	!	!	!	!LO:LB:g=original	!	!	!	!	!	!LO:LB:g=original
=21	=21	=21	=21	=21	=21	=21	=21	=21	=21	=21	=21	=21	=21	=21
4A\	6 5	4ee\]	2.f#/	4A\	ma-	4c\	sae-	1f#	ma-	4ee\]	.	1ryy	1ryy	4A\
4F#\	.	8dd\L	.	4F#\	.	4A/	.	.	.	8dd\L	.	.	.	4F#\
.	.	8cc#X\J	.	.	.	.	.	.	.	8cc#X\J	.	.	.	.
4B\	.	[2dd\	.	4B\	.	[2B\	.	.	.	[2dd\	.	.	.	4B\
4A\	.	.	4ff#\	4A\	.	.	.	.	.	.	.	.	.	4A\
!LO:LB:g=original	!	!	!	!	!	!	!	!	!	!	!	!	!	!
=22	=22	=22	=22	=22	=22	=22	=22	=22	=22	=22	=22	=22	=22	=22
4G#X\	6 5	4dd\]	2.ee\	4G#X\	.	4B\]	.	2.e\	.	4dd\]	.	1ryy	1ryy	4G#X\
4E\	.	8ccn\L	.	4E\	-net	4G#X/	.	.	.	8ccn\L	.	.	.	4E\
.	.	8b\J	.	.	.	.	.	.	.	8b\J	.	.	.	.
4r	.	[2cc\	.	4r	.	[2A/	.	.	.	[2cc\	.	.	.	4r
4A\	.	.	4e/	4A\	in	.	.	4e\	-net	.	.	.	.	4A\
=23	=23	=23	=23	=23	=23	=23	=23	=23	=23	=23	=23	=23	=23	=23
4F#\	6 5	4cc\]	2.d/	4F#\	sae-	4A/]	.	(2.d\	in	4cc\]	.	1ryy	1ryy	4F#\
4D\	.	8b/L	.	4D/	.	4F#/	.	.	.	8b\L	.	.	.	4D\
.	.	8a/J	.	.	.	.	.	.	.	8a\J	.	.	.	.
4Gn\	.	4b/	.	4Gn\	.	[2Gn/	.	.	.	4b\	-jus	.	.	4Gn\
4BB/	.	4g/	4dd\	4BB/	.	.	.	4g\)	.	4dd\	in	.	.	4BB/
!	!	!	!LO:LB:g=original	!	!	!	!	!	!	!	!	!	!	!
=24	=24	=24	=24	=24	=24	=24	=24	=24	=24	=24	=24	=24	=24	=24
2.C/	.	4cc\	4ee\	2.C/	.	2G/]	.	(4cc\	sae-	(4ee\	sae-	1ryy	1ryy	2.C/
.	.	4b/	4dd\	.	.	.	.	4b\	.	4dd\	.	.	.	.
.	6	4a/	4cc\	.	.	4.e\	.	4a\)	.	4cc\)	.	.	.	.
4C#X/	7 5	4g/	4b/	4C#X/	-cu-	.	.	4g\	-cu-	4b\	-cu-	.	.	4C#X/
.	.	.	.	.	.	8e\	-cu-	.	.	.	.	.	.	.
!	!	!LO:LB:g=original	!	!	!	!	!	!	!	!	!	!	!	!
=25	=25	=25	=25	=25	=25	=25	=25	=25	=25	=25	=25	=25	=25	=25
2D\	6 4	(4g/	(4b/	2D/	-lum	2d\	-lum	(4g\	-lum	(4b\	-lum	1ryy	1ryy	2D/
.	5 3	4f#/)	4a/)	.	.	.	.	4f#\)	.	4a\)	.	.	.	.
!	!	!	!	!	!	!	!	!	!	!LO:LB:g=original	!	!	!	!
4r	.	[2dd\	4r	4r	.	4r	.	4r	.	2dd\	in	.	.	4r
4B\	6	.	4dd\|	4B\	in	4d\	in	4g\	in	.	.	.	.	4B\
=26	=26	=26	=26	=26	=26	=26	=26	=26	=26	=26	=26	=26	=26	=26
4c\	9	4dd\]	4ee\	4c\	sae-	4e\	sae-	(2g\	sae-	4dd\	sae-	1ryy	1ryy	4c\
4B\	.	4g/	4g/	4B\	.	4d\	.	.	.	4g/	.	.	.	4B\
4A\	6 3	4f#/	[2cc\	4A\	.	(4c\	.	4f#\)	.	[2cc\	.	.	.	4A\
4G\	.	4e/	.	4G\	.	4B\)	.	4e\	.	.	.	.	.	4G\
=27	=27	=27	=27	=27	=27	=27	=27	=27	=27	=27	=27	=27	=27	=27
4F#\	6 5	4d/	4cc\]	4F#\	.	4A/	.	4d\	.	4cc\]	.	1ryy	1ryy	4F#\
4D\	.	4f#/	8b/L	4D/	.	2d\	.	4f#\	.	8b\L	.	.	.	4D\
.	.	.	8a/J	.	.	.	.	.	.	8a\J	.	.	.	.
4G\	.	[2g/	4b/	4G\	.	.	.	4g\	-cu-	8b\	.	.	.	4G\
.	.	.	.	.	.	.	.	.	.	8b\	-cu-	.	.	.
4C/	.	.	4ee\	8C/	-cu-	8e\	-cu-	4g\	-lum	4cc\	-lum	.	.	4C/
.	.	.	.	8C/	-lum	8e\	-lum	.	.	.	.	.	.	.
!	!	!	!	!LO:LB:g=original	!	!	!	!	!	!	!	!	!	!
=28	=28	=28	=28	=28	=28	=28	=28	=28	=28	=28	=28	=28	=28	=28
2D\	6 4	2g/]	2b/	2.D/	sae-	2.d\	sae-	(2g\	sae-	(2b\	sae-	1ryy	1ryy	2D/
2DD/	5 3	2f#t/	2aT/	.	.	.	.	4.f#\)	.	4.a\)	.	.	.	2DD/
.	.	.	.	4D/	-cu-	4d\	-cu-	.	.	.	.	.	.	.
.	.	.	.	.	.	.	.	8g\	-cu-	8g/	-cu-	.	.	.
=29	=29	=29	=29	=29	=29	=29	=29	=29	=29	=29	=29	=29	=29	=29
2GG/	.	2g/	8g/L	2GG/	-li	2B\	-li.	2g\	-li	2g/	-li	1ryy	1ryy	2GG/
.	.	.	8g/	.	.	.	.	.	.	.	.	.	.	.
.	.	.	8a/	.	.	.	.	.	.	.	.	.	.	.
.	.	.	8b/J	.	.	.	.	.	.	.	.	.	.	.
2r	.	2r	8cc\L	2r	.	2r	.	2r	.	2r	.	.	.	2r
.	.	.	8dd\	.	.	.	.	.	.	.	.	.	.	.
.	.	.	8ee\	.	.	.	.	.	.	.	.	.	.	.
.	.	.	8ff#\J	.	.	.	.	.	.	.	.	.	.	.
=30	=30	=30	=30	=30	=30	=30	=30	=30	=30	=30	=30	=30	=30	=30
!	!	!	!	!	!	!	!	!	!	!	!	!	!	!LO:MO:null:mod=!LO&colon;TX&colon;i&colon;a&colon;t=Solo
!LO:TX:b:i:t=Solo.:mod=Solo	!	!	!	!LO:TX:a:t=10.	!	!LO:TX:a:t=10.	!	!LO:TX:a:t=8	!	!LO:TX:a:t=7.:mod=	!	!	!	!
2E\	7	2r	8gg\L	00r	.	00r	.	00r	.	00r	.	1ryy	1ryy	2E\
.	.	.	8aa\	.	.	.	.	.	.	.	.	.	.	.
.	.	.	8gg\	.	.	.	.	.	.	.	.	.	.	.
.	.	.	8ff#\J	.	.	.	.	.	.	.	.	.	.	.
2A\	7 #	2cc#X\	8gg\L	.	.	.	.	.	.	.	.	.	.	2A\
.	.	.	8ee\	.	.	.	.	.	.	.	.	.	.	.
.	.	.	8dd\	.	.	.	.	.	.	.	.	.	.	.
.	.	.	8ee\J	.	.	.	.	.	.	.	.	.	.	.
=31	=31	=31	=31	=31	=31	=31	=31	=31	=31	=31	=31	=31	=31	=31
!	!	!LO:TX:t=P:problem:mixed beam	!	!	!	!	!	!	!	!	!	!	!	!
1D	.	8dd\L	2ff#\	.	.	.	.	.	.	.	.	1ryy	1ryy	1D
.	.	8d/	.	.	.	.	.	.	.	.	.	.	.	.
.	.	8e/	.	.	.	.	.	.	.	.	.	.	.	.
.	.	8f#/J	.	.	.	.	.	.	.	.	.	.	.	.
.	.	8g/L	2d/	.	.	.	.	.	.	.	.	.	.	.
.	.	8a/	.	.	.	.	.	.	.	.	.	.	.	.
.	.	8b/	.	.	.	.	.	.	.	.	.	.	.	.
.	.	8cc#X/J	.	.	.	.	.	.	.	.	.	.	.	.
=32	=32	=32	=32	=32	=32	=32	=32	=32	=32	=32	=32	=32	=32	=32
!	!	!	!	!	!	!	!	!	!	!	!	!	!	!LO:TX:a:i:t=Solo:mod=
2BB/	7	8dd\L	2r	.	.	.	.	.	.	.	.	1ryy	1ryy	2BB/
.	.	8ee\	.	.	.	.	.	.	.	.	.	.	.	.
.	.	8dd\	.	.	.	.	.	.	.	.	.	.	.	.
.	.	8ccn\J	.	.	.	.	.	.	.	.	.	.	.	.
2E\	7 #	8dd\L	2gg#X\	.	.	.	.	.	.	.	.	.	.	2E\
.	.	8b\	.	.	.	.	.	.	.	.	.	.	.	.
.	.	8a\	.	.	.	.	.	.	.	.	.	.	.	.
.	.	8b\J	.	.	.	.	.	.	.	.	.	.	.	.
=33	=33	=33	=33	=33	=33	=33	=33	=33	=33	=33	=33	=33	=33	=33
1AA	.	2cc\	8aa\L	.	.	.	.	.	.	.	.	1ryy	1ryy	1AA
.	.	.	8a\	.	.	.	.	.	.	.	.	.	.	.
.	.	.	8b\	.	.	.	.	.	.	.	.	.	.	.
.	.	.	8cc\J	.	.	.	.	.	.	.	.	.	.	.
.	.	2A/	8dd\L	.	.	.	.	.	.	.	.	.	.	.
.	.	.	8ee\	.	.	.	.	.	.	.	.	.	.	.
.	.	.	8ff#\	.	.	.	.	.	.	.	.	.	.	.
.	.	.	8gg#X\J	.	.	.	.	.	.	.	.	.	.	.
!	!	!	!LO:LB:g=original	!	!	!	!	!	!	!	!	!	!	!
=34	=34	=34	=34	=34	=34	=34	=34	=34	=34	=34	=34	=34	=34	=34
2F#\	7	2r	8aa\L	00r	.	00r	.	00r	.	0r	.	1ryy	1ryy	2F#\
.	.	.	8bb\	.	.	.	.	.	.	.	.	.	.	.
.	.	.	8aa\	.	.	.	.	.	.	.	.	.	.	.
.	.	.	8ggn\J	.	.	.	.	.	.	.	.	.	.	.
2B\	7 #	2dd#X\	8aa\L	.	.	.	.	.	.	.	.	.	.	2B\
.	.	.	8ff#\	.	.	.	.	.	.	.	.	.	.	.
.	.	.	8ee\	.	.	.	.	.	.	.	.	.	.	.
.	.	.	8ff#\J	.	.	.	.	.	.	.	.	.	.	.
=35	=35	=35	=35	=35	=35	=35	=35	=35	=35	=35	=35	=35	=35	=35
!	!	!LO:TX:t=P:problem:mixed beam	!	!	!	!	!	!	!	!	!	!	!	!
1E	.	8ee\L	2gg\	.	.	.	.	.	.	.	.	1ryy	1ryy	1E
.	.	8e/	.	.	.	.	.	.	.	.	.	.	.	.
.	.	8f#/	.	.	.	.	.	.	.	.	.	.	.	.
.	.	8g/J	.	.	.	.	.	.	.	.	.	.	.	.
.	.	8a\L	2e/	.	.	.	.	.	.	.	.	.	.	.
.	.	8b\	.	.	.	.	.	.	.	.	.	.	.	.
.	.	8cc#X\	.	.	.	.	.	.	.	.	.	.	.	.
.	.	8dd#X\J	.	.	.	.	.	.	.	.	.	.	.	.
=36	=36	=36	=36	=36	=36	=36	=36	=36	=36	=36	=36	=36	=36	=36
2C#X/	7	8ee\L	2r	.	.	.	.	.	.	1r	.	1ryy	1ryy	2C#X/
.	.	8ff#\	.	.	.	.	.	.	.	.	.	.	.	.
.	.	8ee\	.	.	.	.	.	.	.	.	.	.	.	.
.	.	8dd#X\J	.	.	.	.	.	.	.	.	.	.	.	.
!	!	!LO:LB:g=original	!	!	!	!	!	!	!	!	!	!	!	!
2F#\	7 #	8ee\L	2a#X/	.	.	.	.	.	.	.	.	.	.	2F#\
.	.	8gg\	.	.	.	.	.	.	.	.	.	.	.	.
.	.	8ff#\	.	.	.	.	.	.	.	.	.	.	.	.
.	.	8ee\J	.	.	.	.	.	.	.	.	.	.	.	.
=37	=37	=37	=37	=37	=37	=37	=37	=37	=37	=37	=37	=37	=37	=37
2BB/	#	2dd#X\	4b/	.	.	.	.	.	.	4r	.	1ryy	1ryy	2BB/
.	.	.	4bb\	.	.	.	.	.	.	4b\	me-	.	.	.
2r	.	2r	4bb\	.	.	.	.	.	.	4.b\	-mo-	.	.	2r
.	.	.	4bb\	.	.	.	.	.	.	.	.	.	.	.
.	.	.	.	.	.	.	.	.	.	8b\	-ri-	.	.	.
!LO:LB:g=original	!	!	!	!	!	!	!	!	!	!	!	!	!	!LO:LB:g=original
=38	=38	=38	=38	=38	=38	=38	=38	=38	=38	=38	=38	=38	=38	=38
!LO:TX:a:t=2.:mod=	!	!	!	!	!	!	!	!	!	!	!	!	!	!
0r	.	4r	4ccc\	0r	.	0r	.	4r	.	4cc\	-am	1ryy	1ryy	0r
.	.	4ee\	4ccc\	.	.	.	.	2e\	me-	2cc\	fe-	.	.	.
.	.	4ee\	4ccc\	.	.	.	.	.	.	.	.	.	.	.
.	.	4ff#\	8bb\L	.	.	.	.	4f#\	.	8b\L	.	.	.	.
.	.	.	8aa\J	.	.	.	.	.	.	8a\J	.	.	.	.
=39	=39	=39	=39	=39	=39	=39	=39	=39	=39	=39	=39	=39	=39	=39
.	.	4gg\	4bb\	.	.	.	.	4g\	.	2b\	-cit	1ryy	1ryy	.
.	.	4gg\	4b/	.	.	.	.	4g\	-mor	.	.	.	.	.
!	!	!	!	!	!	!	!	!LO:LB:g=original	!	!	!	!	!	!
.	.	4gg\	[2ee\	.	.	.	.	4g\	e-	[2ee\	mi-	.	.	.
.	.	8ff#\L	.	.	.	.	.	8f#\	-rit	.	.	.	.	.
.	.	8ee\J	.	.	.	.	.	8e\	in	.	.	.	.	.
=40	=40	=40	=40	=40	=40	=40	=40	=40	=40	=40	=40	=40	=40	=40
4r	.	4ff#\	4ee\]	4r	.	4r	.	4f#\	sae-	4ee\]	.	1ryy	1ryy	4r
!	!	!	!	!	!	!	!	!	!	!	!	!	!	!LO:MO:mod=!LO&colon;TX&colon;i&colon;a&colon;t=Tutti
!LO:TX:b:i:t=tutti.:mod=Tutti	!	!	!	!	!	!	!	!	!	!	!	!	!	!LO:TX:b:i:t=Tutti.
4BB/	n	4b/	4dd\	2BB/	me-	2F#/	es-	4B/	.	4dd\	-ra-	.	.	4BB/
4BB/	.	[2bb\	4dd\	.	.	.	.	[2b\	.	4dd\	-bi-	.	.	4BB/
4C#X/	.	.	4ee\	4C#X/	-mor	4E/	-cam	.	.	4ee\	-li-	.	.	4C#X/
!	!	!	!	!	!	!LO:LB:g=original	!	!	!	!	!	!	!	!
=41	=41	=41	=41	=41	=41	=41	=41	=41	=41	=41	=41	=41	=41	=41
2D\	6	4bb\]	4ff#\	2D/	e-	4D/	de-	4b\]	.	4ff#\	-um	1ryy	1ryy	2D/
.	.	4ff#\	4a/	.	.	2d\	.	8f#\	-cu-	4a\	su-	.	.	.
.	.	.	.	.	.	.	.	8f#\	-lum	.	.	.	.	.
2DD/	5	4ff#\	4a/	2D/	-rit	.	.	4f#\	tes-	(4a\	-o-	.	.	2DD/
.	.	4gg#X\	4b/	.	.	8c\L	.	4g#X\	-ta-	4b\)	.	.	.	.
.	.	.	.	.	.	8B\J	.	.	.	.	.	.	.	.
=42	=42	=42	=42	=42	=42	=42	=42	=42	=42	=42	=42	=42	=42	=42
4r	.	4aa\	4cc\	4r	.	2A/	-dit	4a\	-men-	4cc\	-rum	1ryy	1ryy	4r
4AA/	.	4ee\	4cc\	2AA/	me-	.	.	4e\	-ti	4cc\	mi-	.	.	4AA/
4AA/	.	[2aa\	4cc\	.	.	4E/	es-	[2a\	tes-	4cc\	-se-	.	.	4AA/
!	!	!	!	!	!	!	!LO:MO:mod=-cam	!	!	!	!	!	!	!
4BB/	.	.	4dd\	4BB/	-mor	4D/	-ca(m)	.	.	4dd\	-ri-	.	.	4BB/
!	!	!	!	!	!	!	!	!	!	!LO:LB:g=original	!	!	!	!
=43	=43	=43	=43	=43	=43	=43	=43	=43	=43	=43	=43	=43	=43	=43
2C/	6	4aa\]	4ee\	1C	e-	4C/	de-	4a\]	.	4ee\	-cors	1ryy	1ryy	2C/
.	.	4ee\	4g/	.	.	2c\	.	4e\	-ta-	4g/	et	.	.	.
2CC/	5	4ee\	4g/	.	.	.	.	(4e\	-men-	4g/	mi-	.	.	2CC/
.	.	4ff#\	4a/	.	.	8B\L	.	4f#\)	.	4a\	-se-	.	.	.
.	.	.	.	.	.	8A\J	.	.	.	.	.	.	.	.
=44	=44	=44	=44	=44	=44	=44	=44	=44	=44	=44	=44	=44	=44	=44
2GG/	.	4gg\	2b\	2GG/	-rit	2G/	-dit	2gn\	.	4b\	-ra-	1ryy	1ryy	2GG/
.	.	4dd\	.	.	.	.	.	.	.	4dd\	.	.	.	.
!LO:MO:mod=*null:null	!	!	!	!	!	!	!	!	!	!	!	!	!	!LO:MO:mod=*null:null
*clefC4	*	*	*	*	*	*	*	*	*	*	*	*	*	*clefC4
2e\	.	[2gg\	2bb\	2r	.	2e\	ti-	2b\	-ti	[2gg\	.	.	.	2e\
=45	=45	=45	=45	=45	=45	=45	=45	=45	=45	=45	=45	=45	=45	=45
!	!	!	!	!LO:TX:a:t=1.:mod=	!	!	!	!	!	!	!	!	!	!
2c#X\	6 5	2gg\]	1aa	1r	.	2c#X\	-men-	1a	su-	2gg\]	.	1ryy	1ryy	2c#X\
2d#X\	6 5	[2ff#\	.	.	.	4.d#X\	-ti-	.	.	2ff#\	-tor	.	.	2d#X\
.	.	.	.	.	.	8d#\	-bus	.	.	.	.	.	.	.
!	!	!	!LO:LB:g=original	!	!	!	!	!	!	!	!	!	!	!
=46	=46	=46	=46	=46	=46	=46	=46	=46	=46	=46	=46	=46	=46	=46
!LO:MO:mod=*null:null	!	!	!	!	!	!	!	!	!	!	!	!	!	!LO:MO:mod=*null:null
*clefF4	*	*	*	*	*	*	*	*	*	*	*	*	*	*clefF4
1E	9	2ff#\]	2.gg\	1E	a-	2B\	se	2.g\	-i	(2ff#\	Do-	1ryy	1ryy	1E
.	8	4ee\	.	.	.	2r	.	.	.	4ee\)	.	.	.	.
.	.	4dd#X\	4ff#\	.	.	.	.	4f#\	vir-	4dd#X\	-mi-	.	.	.
=47	=47	=47	=47	=47	=47	=47	=47	=47	=47	=47	=47	=47	=47	=47
!	!	!	!	!	!	!LO:TX:a:t=8.:mod=	!	!	!	!	!	!	!	!
1G	6	[1ee	4ee\	2.G\	-nun-	00r	.	4e\	-tu-	1ee	-nus	1ryy	1ryy	1G
!	!	!	!	!	!	!	!	!	!LO:MO:mod=-tem	!	!	!	!	!
.	.	.	4dd\	.	.	.	.	4dd\	-te(m)	.	.	.	.	.
.	.	.	4cc#X\	.	.	.	.	4.cc#X\	o-	.	.	.	.	.
.	.	.	4b\	4G\	-ti-	.	.	.	.	.	.	.	.	.
.	.	.	.	.	.	.	.	8b\	-pe-	.	.	.	.	.
=48	=48	=48	=48	=48	=48	=48	=48	=48	=48	=48	=48	=48	=48	=48
4F#\	7 #	2ee\]	2a#X/	4F#\	-a-	.	.	2a#X\	-rum	2ee\	es-	1ryy	1ryy	4F#\
4BB/	.	.	.	4BB/	.	.	.	.	.	.	.	.	.	4BB/
[2B\	.	2ddn\	2b/	[2B\	.	.	.	2b\	su-	2ddn\	-cam	.	.	[2B\
!	!	!	!	!	!	!	!	!LO:LB:g=original	!	!	!	!	!	!
=49	=49	=49	=49	=49	=49	=49	=49	=49	=49	=49	=49	=49	=49	=49
2B\]	#9r	4ee\	1cc#X	2B\]	.	.	.	(4e\	-o-	1cc#X	de-	1ryy	1ryy	2B\]
.	.	4gg\	.	.	.	.	.	4g\)	.	.	.	.	.	.
!	!	!	!	!	!	!	!	!	!LO:MO:mod=-rum	!	!	!	!	!
2A#X\	6	4ff#\	.	2A#X\	.	.	.	4f#\	-ru(m)	.	.	.	.	2A#X\
.	.	4ee\	.	.	.	.	.	4e\	an-	.	.	.	.	.
!	!	!LO:LB:g=original	!	!	!	!	!	!	!	!	!	!	!	!
=50	=50	=50	=50	=50	=50	=50	=50	=50	=50	=50	=50	=50	=50	=50
2B\	.	4dd\	2f#/	2B\	-bit	.	.	4d\	-nun-	2f#/	-dit	1ryy	1ryy	2B\
.	.	4b\	.	.	.	.	.	4B/	-ti-	.	.	.	.	.
*clefC4	*	*	*	*	*	*	*	*	*	*	*	*	*	*clefC4
*mclefG2	*	*	*	*	*	*	*	*	*	*	*	*	*	*
2B\	6	[2gg\	2r	2r	.	.	.	[2g\	-a-	4dd\	ti-	.	.	2B\
.	.	.	.	.	.	.	.	.	.	4dd\	-men-	.	.	.
!	!	!	!	!LO:LB:g=original	!	!	!	!	!	!	!	!	!	!
=51	=51	=51	=51	=51	=51	=51	=51	=51	=51	=51	=51	=51	=51	=51
!	!	!	!	!LO:TX:a:t=4.:mod=	!	!	!	!	!	!	!	!	!	!
2c#X\	6 5	2gg\]	1aa	00r	.	00r	.	2g\]	.	4.ee\	-ti-	1ryy	1ryy	2c#X\
.	.	.	.	.	.	.	.	.	.	8ee\	-bus	.	.	.
!	!	!	!	!	!	!	!	!	!	!	!	!	!	!LO:SIC:s=[2d
[2d\	.	2ff#\	.	.	.	.	.	2f#\	-bit	2a\	se	.	.	2d\
=52	=52	=52	=52	=52	=52	=52	=52	=52	=52	=52	=52	=52	=52	=52
!	!	!	!	!	!	!	!	!	!	!LO:TX:a:t=6.:mod=	!	!	!	!LO:SIC:s=2d]
2d\]	+4r 2	1ee	4gg#X\	.	.	.	.	4.g#X\	po-	00r	.	1ryy	1ryy	2d\
.	.	.	4ee\	.	.	.	.	.	.	.	.	.	.	.
.	.	.	.	.	.	.	.	8g#\	-pu-	.	.	.	.	.
!	!	!	!	!	!	!	!	!	!	!	!	!	!	!LO:TX:t=P:problem:dźwięk nieczytelny - defekt źródła
!	!	!	!	!	!	!	!	!	!	!	!	!	!	!LO:SIC:s=2c#
2c#X\	6	.	[2aa\	.	.	.	.	2a\	-lo	.	.	.	.	2c#X\yy
!LO:LB:g=original	!	!	!	!	!	!	!	!	!	!	!	!	!	!LO:LB:g=original
=53	=53	=53	=53	=53	=53	=53	=53	=53	=53	=53	=53	=53	=53	=53
2d#X\	6 5	1b	2aa\]	.	.	.	.	2f#\	su-	.	.	1ryy	1ryy	2d#X\
[2e\	.	.	2ggn\	.	.	.	.	2e\	-o	.	.	.	.	[2e\
=54	=54	=54	=54	=54	=54	=54	=54	=54	=54	=54	=54	=54	=54	=54
!	!	!	!	!	!	!	!	!LO:TX:a:t=3.:mod=	!	!	!	!	!	!
2e\]	+4r 2	2a#X/	2ff#\	.	.	.	.	0r	.	.	.	1ryy	1ryy	2e\]
4dn\	6	2b/	[2bb\	.	.	.	.	.	.	.	.	.	.	4dn\
4B\	.	.	.	.	.	.	.	.	.	.	.	.	.	4B\
=55	=55	=55	=55	=55	=55	=55	=55	=55	=55	=55	=55	=55	=55	=55
4f#\	4	1cc#X	2bb\]	4r	.	4r	.	.	.	.	.	1ryy	1ryy	4f#\
*clefF4	*	*	*	*	*	*	*	*	*	*	*	*	*	*clefF4
4F#X\	.	.	.	2F#\	ut	2f#\	ut	.	.	.	.	.	.	4F#X\
4F#\	#	.	2aa#X\	.	.	.	.	.	.	.	.	.	.	4F#\
4F#\	.	.	.	4F#\	det	4f#\	det	.	.	.	.	.	.	4F#\
=56	=56	=56	=56	=56	=56	=56	=56	=56	=56	=56	=56	=56	=56	=56
4G\	7	4r	2bb\	4G\	il-	4f#\	il-	1r	.	0r	.	1ryy	1ryy	4G\
4G\	.	4b/	.	8G\	-lis	8e\	-lis	.	.	.	.	.	.	4G\
.	.	.	.	8G\	he-	8e\	he-	.	.	.	.	.	.	.
4G\	6	4b/	2r	4G\	-re-	4e\	-re-	.	.	.	.	.	.	4G\
8F#\L	.	8a/L	.	8F#\L	-di-	4e\	-di-	.	.	.	.	.	.	8F#\L
8E\J	.	8g/J	.	8E\J	.	.	.	.	.	.	.	.	.	8E\J
=57	=57	=57	=57	=57	=57	=57	=57	=57	=57	=57	=57	=57	=57	=57
1D#X	6	4f#/	4r	2.D#X/	-ta-	2.B\	-ta-	4r	.	.	.	1ryy	1ryy	1D#X
.	.	4B/	4ff#\	.	.	.	.	4.f#\	o-	.	.	.	.	.
.	.	2r	4ff#\	.	.	.	.	.	.	.	.	.	.	.
.	.	.	.	.	.	.	.	8f#\	-pe-	.	.	.	.	.
.	.	.	4ff#\	4D#/	-tem	4B\	-tem	4f#\	-ra	.	.	.	.	.
=58	=58	=58	=58	=58	=58	=58	=58	=58	=58	=58	=58	=58	=58	=58
1E	.	4r	4gg\	4.E\	gen-	4.B\	gen-	2.g\	ma-	4r	.	1ryy	1ryy	1E
.	.	4b/	4gg\	.	.	.	.	.	.	4b\	e-	.	.	.
.	.	.	.	8E\	-ti-	8B\	-ti-	.	.	.	.	.	.	.
.	.	[2ee\	4gg\	2E\	-um	2B\	-um	.	.	[2ee\	.	.	.	.
.	.	.	8ff#\L	.	.	.	.	8f#\	-nu-	.	.	.	.	.
.	.	.	8ee\J	.	.	.	.	8e\	-um	.	.	.	.	.
!	!	!	!LO:LB:g=original	!	!	!LO:LB:g=original	!	!	!	!	!	!	!	!
=59	=59	=59	=59	=59	=59	=59	=59	=59	=59	=59	=59	=59	=59	=59
1GG#X	6 5	4ee\]	4bb\	1GG#X	fi-	2r	.	2b\	e-	4ee\]	.	1ryy	1ryy	1GG#X
.	.	4dd\	4b/	.	.	.	.	.	.	2dd\	.	.	.	.
.	.	4dd\	[2bb\	.	.	2e\	fi-	2b\	-jus	.	.	.	.	.
.	.	8cc\L	.	.	.	.	.	.	.	8cc\L	.	.	.	.
.	.	8b\J	.	.	.	.	.	.	.	8b\J	.	.	.	.
!	!	!	!	!	!	!	!	!	!	!LO:LB:g=original	!	!	!	!
=60	=60	=60	=60	=60	=60	=60	=60	=60	=60	=60	=60	=60	=60	=60
1AA	.	4cc\	4bb\]	4.AA/	-de-	4.e\	-de-	4b\	ve-	2cc\	.	1ryy	1ryy	1AA
.	.	4c/	8ccc\L	.	.	.	.	8cc\L	.	.	.	.	.	.
.	.	.	8bb\J	8AA/	-li-	8e\	-li-	8b\J	.	.	.	.	.	.
.	.	[2cc\	4aa\	2AA/	-a	2e\	-a	4a\	.	2cc\	-jus	.	.	.
.	.	.	4gg\	.	.	.	.	4g\	.	.	.	.	.	.
!	!	!	!	!	!	!	!	!LO:LB:g=original	!	!	!	!	!	!
=61	=61	=61	=61	=61	=61	=61	=61	=61	=61	=61	=61	=61	=61	=61
4Dn\	7	4cc\]	4ff#\	2.D/	o-	2A/	o-	4.f#\	.	4cc\	ve-	1ryy	1ryy	4Dn/
4DD/	.	8dd\L	4dd\	.	.	.	.	.	.	8dd\L	.	.	.	4DD/
.	.	8cc\J	.	.	.	.	.	8e\	-ri-	8cc\J	.	.	.	.
[2D\	6	4b/	2r	.	.	2f#\	-mni-	2d\	-tas	4b\	.	.	.	[2D/
.	5	4a/	.	4D/	-mni-	.	.	.	.	4a\	-ri-	.	.	.
=62	=62	=62	=62	=62	=62	=62	=62	=62	=62	=62	=62	=62	=62	=62
2D\]	2	2.g/	4r	2D/	-a	2.e\	-a	2.e\	et	4g/	-tas	1ryy	1ryy	2D/]
.	.	.	4ee\	.	.	.	.	.	.	2g/	et	.	.	.
2C/	5	.	4ee\	2C/	man-	.	.	.	.	.	.	.	.	2C/
.	.	4a/	4ff#\	.	.	4d\	man-	4f#\	ju-	4a\	ju-	.	.	.
=63	=63	=63	=63	=63	=63	=63	=63	=63	=63	=63	=63	=63	=63	=63
4BB/	6	2d/	4gg\	4BB/	-da-	2d\	-da-	4.g\	-di-	4.b\	-di-	1ryy	1ryy	4BB/
4GG/	.	.	8bb\L	4GG/	-ta	.	.	.	.	.	.	.	.	4GG/
.	.	.	8aa\J	.	.	.	.	8g\	-ci-	8b\	-ci-	.	.	.
[2G\	.	2b/	8gg\L	[2G\	e-	2d\	-ta	2g\	-um	2b\	-um	.	.	2G\
.	.	.	8ff#\	.	.	.	.	.	.	.	.	.	.	.
.	.	.	8ee\	.	.	.	.	.	.	.	.	.	.	.
.	.	.	8dd\J	.	.	.	.	.	.	.	.	.	.	.
!	!	!	!	!LO:LB:g=original	!	!	!	!	!	!	!	!	!	!
=64	=64	=64	=64	=64	=64	=64	=64	=64	=64	=64	=64	=64	=64	=64
4G\]	2	4r	4cc\	2.G\]	.	1e	e-	2.a\	con-	2.cc\	con-	1ryy	1ryy	4G\
4G\	.	8ee\L	4c/	.	.	.	.	.	.	.	.	.	.	4G\
.	.	8dd\J	.	.	.	.	.	.	.	.	.	.	.	.
!	!	!LO:LB:g=original	!	!	!	!	!	!	!	!	!	!	!	!
4G\	.	8cc\L	2aa\	.	.	.	.	.	.	.	.	.	.	4G\
.	.	8b\	.	.	.	.	.	.	.	.	.	.	.	.
8F#\L	.	8a\	.	8F#\L	.	.	.	4a\	-fir-	4cc\	-fir-	.	.	8F#\L
8E\J	.	8g\J	.	8E\J	.	.	.	.	.	.	.	.	.	8E\J
=65	=65	=65	=65	=65	=65	=65	=65	=65	=65	=65	=65	=65	=65	=65
4F#\	6	4a/	4r	1F#	-ius	1d	-jus	2a\	-ma-	2dd\	-ma-	1ryy	1ryy	4F#\
4FF#/	.	4A/	8aa\L	.	.	.	.	.	.	.	.	.	.	4FF#/
.	.	.	8gg\J	.	.	.	.	.	.	.	.	.	.	.
[2F#\	.	2a/	8ff#\L	.	.	.	.	2a\	-ta	2dd\	-ta	.	.	[2F#\
.	.	.	8ee\	.	.	.	.	.	.	.	.	.	.	.
.	.	.	8dd\	.	.	.	.	.	.	.	.	.	.	.
.	.	.	8cc\J	.	.	.	.	.	.	.	.	.	.	.
=66	=66	=66	=66	=66	=66	=66	=66	=66	=66	=66	=66	=66	=66	=66
4F#\]	2	4r	4b/	2.F#\	con-	2.d\	con-	1g	in	1b	in	1ryy	1ryy	4F#\]
4F#\	.	8dd\L	4B/	.	.	.	.	.	.	.	.	.	.	4F#\
.	.	8cc\J	.	.	.	.	.	.	.	.	.	.	.	.
!LO:LB:g=original	!	!	!	!	!	!	!	!	!	!	!	!	!	!
4F#\	.	8b/L	2gg\	.	.	.	.	.	.	.	.	.	.	4F#\
.	.	8a/	.	.	.	.	.	.	.	.	.	.	.	.
!	!	!	!	!	!	!	!	!	!	!	!	!	!	!LO:TX:t=P:problem:dźwięki nieczytelne - defekt źródła
!	!	!	!	!	!	!	!	!	!	!	!	!	!	!LO:SIC:s=8EL
8E\L	.	8g/	.	8E\L	-fir-	8e\L	-fir-	.	.	.	.	.	.	8F#\yy
!	!	!	!	!	!	!	!	!	!	!	!	!	!	!LO:SIC:s=8DJ
8D\J	.	8f#/J	.	8D\J	.	8f#\J	.	.	.	.	.	.	.	8E\yy
!	!	!	!	!	!	!	!	!	!	!	!	!	!	!LO:LB:g=original
=67	=67	=67	=67	=67	=67	=67	=67	=67	=67	=67	=67	=67	=67	=67
4E\	6\	4g/	4r	[1E	-ma-	1e	-ma-	2.g\	sae-	2.cc#X\	sae-	1ryy	1ryy	4E\
4EE/	.	4G/	8gg\L	.	.	.	.	.	.	.	.	.	.	4EE/
.	.	.	8ff#\J	.	.	.	.	.	.	.	.	.	.	.
[2E\	.	2g/	8ee\L	.	.	.	.	.	.	.	.	.	.	[2E\
.	.	.	8dd\	.	.	.	.	.	.	.	.	.	.	.
.	.	.	8cc#X\	.	.	.	.	4g\	-cu-	4cc#\	-cu-	.	.	.
.	.	.	8b\J	.	.	.	.	.	.	.	.	.	.	.
=68	=68	=68	=68	=68	=68	=68	=68	=68	=68	=68	=68	=68	=68	=68
2E\]	+4r 2	2.f#/	4a#X/	2E\]	.	2c#X\	-ta	2f#\	-lum	2a#X\	-lum	1ryy	1ryy	2E\]
.	.	.	4f#/	.	.	.	.	.	.	.	.	.	.	.
2D\	6	.	[2b\	4D/	-ta	2d\	in	2f#\	sae-	[2b\	sae-	.	.	2D\
.	.	4f#/	.	4D/	in	.	.	.	.	.	.	.	.	.
!	!	!	!LO:LB:g=original	!	!	!	!	!	!	!	!	!	!	!
=69	=69	=69	=69	=69	=69	=69	=69	=69	=69	=69	=69	=69	=69	=69
2E\	7 5	2g/	4b\]	2E\	sae-	2.d\	sae-	2g\	.	4b\]	.	1ryy	1ryy	2E\
.	.	.	4dd\	.	.	.	.	.	.	4dd\	.	.	.	.
2F#\	6 4	2d/	[2b\	2F#\	.	.	.	2d\	.	[2b\	.	.	.	2F#\
.	.	.	.	.	.	4d\	-cu-	.	.	.	.	.	.	.
=70	=70	=70	=70	=70	=70	=70	=70	=70	=70	=70	=70	=70	=70	=70
2.G\	6	4e/	4b\]	2.G\	.	2B\	-lum	[1e	.	2b\]	.	1ryy	1ryy	2.G\
.	.	4ee\	4bb\	.	.	.	.	.	.	.	.	.	.	.
.	.	4cc#X\	[2ee\	.	.	2e\	sae-	.	.	4cc#X\	.	.	.	.
4G\	.	4b/	.	4G\	-cu-	.	.	.	.	4b\	.	.	.	4G\
=71	=71	=71	=71	=71	=71	=71	=71	=71	=71	=71	=71	=71	=71	=71
4F#\	7 #	4a#X/	4ee\]	4F#\	-lum	2c#X\	.	2e\]	.	4a#X\	.	1ryy	1ryy	4F#\
4A#X\	.	4f#/	8dd\L	4A#X\	sae-	.	.	.	.	4f#/	.	.	.	4A#X\
.	.	.	8cc#X\J	.	.	.	.	.	.	.	.	.	.	.
4B\	.	[2b/	4dd\	4B\	.	4F#/	.	[2d\	.	[2b\	.	.	.	4B\
4E\	.	.	4gg\	4E\	.	4G/	.	.	.	.	.	.	.	4E\
!	!	!	!	!	!	!	!	!	!	!LO:LB:g=original	!	!	!	!
=72	=72	=72	=72	=72	=72	=72	=72	=72	=72	=72	=72	=72	=72	=72
2F#\	6 4	2b/]	2dd\	2.F#\	.	2.F#/	.	2d\]	.	2b\]	.	1ryy	1ryy	2F#\
2FF#/	7 #	2a#X/	2cc#Xt\	.	.	.	.	4.c#X/	.	4.a#X\	.	.	.	2FF#/
.	.	.	.	4F#\	-cu-	4F#/	-cu-	.	.	.	.	.	.	.
.	.	.	.	.	.	.	.	8c#/	-cu-	8a#\	-cu-	.	.	.
!	!	!	!	!	!	!LO:LB:g=original	!	!	!	!	!	!	!	!
=73	=73	=73	=73	=73	=73	=73	=73	=73	=73	=73	=73	=73	=73	=73
2BB/	.	2b/	4b\	2BB/	-li	2F#/	-li	2B/	-li	4b\	-li	1ryy	1ryy	2BB/
.	.	.	4b\	.	.	.	.	.	.	4b\	fac-	.	.	.
2r	.	2r	4b\	2r	.	2r	.	2r	.	4b\	-ta	.	.	2r
.	.	.	4cc#X\	.	.	.	.	.	.	4cc#X\	in	.	.	.
!	!	!	!	!	!	!	!	!LO:PB:g=original	!	!	!	!	!	!
=74	=74	=74	=74	=74	=74	=74	=74	=74	=74	=74	=74	=74	=74	=74
!	!	!	!	!	!	!LO:TX:a:t=1.:mod=	!	!	!	!	!	!	!	!
4r	.	4r	4dd\	4r	.	1r	.	4r	.	2.dd\	ve-	1ryy	1ryy	4r
4F#\	6	4an/	4dd\	4F#\	re-	.	.	4a\	Sanc-	.	.	.	.	4F#\
!	!	!	!	!	!	!	!	!	!LO:MO:mod=-tum	!	!	!	!	!
4F#\	.	4a/	4dd\	4F#\	-dem-	.	.	4a\	-tu(m)	.	.	.	.	4F#\
4G#X\	5	4b/	8ccn\L	4G#X\	-pti-	.	.	8b\	et	8ccn\L	-ri-	.	.	4G#X\
.	.	.	8b\J	.	.	.	.	8b\	ter-	8b\J	.	.	.	.
=75	=75	=75	=75	=75	=75	=75	=75	=75	=75	=75	=75	=75	=75	=75
4A\	.	4e/	4cc\	4A\	-o-	4r	.	4.e\	-ri-	2cc\	-ta-	1ryy	1ryy	4A\
4A\	.	4cc\	4ee\	4A\	-nem	4A/	man-	.	.	.	.	.	.	4A\
.	.	.	.	.	.	.	.	8e\	-bi-	.	.	.	.	.
!	!	!	!	!LO:LB:g=original	!	!	!	!	!	!	!	!	!	!
4A\	.	4cc\	4ee\	4A\	mi-	4A/	-da-	4e\	-le	4cc\	-te	.	.	4A\
8Gn\L	.	8b\L	4ff#\	8Gn\L	-sit	4A/	-vit	4f#\	No-	8b\L	et	.	.	8Gn\L
8F#\J	.	8a\J	.	8F#\J	.	.	.	.	.	8a\J	.	.	.	8F#\J
!	!	!LO:LB:g=original	!	!	!	!	!	!	!	!	!	!	!	!
=76	=76	=76	=76	=76	=76	=76	=76	=76	=76	=76	=76	=76	=76	=76
4E\	.	4g/	4gg\	4E\	po-	(4B\	in	2.g\	.	4g/	ae-	1ryy	1ryy	4E\
4G\	.	4gg\	4bb\	2G\	.	2e\)	.	.	.	2b\	.	.	.	4G\
4G\	.	4gg\	4bb\	.	.	.	.	.	.	.	.	.	.	4G\
4A\	6	8ff#\L	8aa\L	8A\	-pu-	4c\	ae-	8f#\L	-men	8a\L	-qui-	.	.	4A\
.	.	8ee\J	8gg\J	8A\	-lo	.	.	8e\J	.	8g\J	.	.	.	.
=77	=77	=77	=77	=77	=77	=77	=77	=77	=77	=77	=77	=77	=77	=77
4B\	#	4dd#X\	4ff#\	4B\	su-	4B\	-ter-	4d#X\	e-	4f#/	-ta-	1ryy	1ryy	4B\
4BB/	.	4b/	4b\	4BB/	-o	4B\	-num	4d#\	-jus	4f#/	-te	.	.	4BB/
4r	.	4r	[2gg\	4r	.	4r	.	4r	.	4r	.	.	.	4r
4B\	6 n	4bb\	.	4B\	Do-	4dn\	tes-	4g\	i-	4b\	in-	.	.	4B\
=78	=78	=78	=78	=78	=78	=78	=78	=78	=78	=78	=78	=78	=78	=78
4c\	6 5	2.aa\	4gg\]	4c\	.	2e\	.	4.g\	-ni-	2.a\	.	1ryy	1ryy	4c\
4A\	.	.	8aa\L	4A\	.	.	.	.	.	.	.	.	.	4A\
.	.	.	8gg\J	.	.	.	.	8g\	-ti-	.	.	.	.	.
4d\	.	.	[2ff#\	4d\	.	2d\	-ta-	4f#\	-um	.	.	.	.	4d\
4c\	.	8bb\L	.	4c\	.	.	.	8f#\	sa-	8b\L	-tel-	.	.	4c\
.	.	8aa\J	.	.	.	.	.	8f#\	-pi-	8a\J	.	.	.	.
!LO:LB:g=original	!	!	!	!	!	!	!	!	!	!	!	!	!	!
=79	=79	=79	=79	=79	=79	=79	=79	=79	=79	=79	=79	=79	=79	=79
4B\	6 5	2.gg\	4ff#\]	8B\	.	2d\	-men-	4.f#\	-en-	2.g/	-lec-	1ryy	1ryy	4B\
.	.	.	.	8B\	-mi-	.	.	.	.	.	.	.	.	.
4G\	.	.	4b/	4G\	-nus	.	.	.	.	.	.	.	.	4G\
.	.	.	.	.	.	.	.	8f#\	-ti-	.	.	.	.	.
!	!	!	!	!	!	!	!LO:MO:mod=-tum	!	!	!	!	!	!	!
4r	.	.	[2ee\	4r	.	2c\	-tu(m)	2e\	-ae	.	.	.	.	4r
!	!	!	!	!	!	!	!	!	!	!	!	!	!	!LO:TX:t=P:problem:dźwięki nieczytelne - defekt źródła
!	!	!	!	!	!	!	!	!	!	!	!	!	!	!LO:SIC:s=4c
4c\	.	4g/	.	4c\	man-	.	.	.	.	4ee\	-tus	.	.	4c\yy
!	!	!	!LO:LB:g=original	!	!	!	!	!	!	!	!	!	!	!LO:LB:g=original
=80	=80	=80	=80	=80	=80	=80	=80	=80	=80	=80	=80	=80	=80	=80
4A\	6 5	2.f#/	4ee\]	4A\	-da-	(2c\	su-	2f#\	ti-	2ee\	bo-	1ryy	1ryy	4A\
4F#\	.	.	8dd\L	4F#\	-vit	.	.	.	.	.	.	.	.	4F#\
.	.	.	8cc#X\J	.	.	.	.	.	.	.	.	.	.	.
4B\	.	.	[2dd\	4B\	in	2B\)	.	2f#\	-mor	2dd\	-nus	.	.	4B\
4A\	.	4ff#\	.	4A\	ae-	.	.	.	.	.	.	.	.	4A\
=81	=81	=81	=81	=81	=81	=81	=81	=81	=81	=81	=81	=81	=81	=81
4G#X\	6 5	2.ee\	4dd\]	4G#X\	-ter-	2B\	-um	2.e\	Do-	4.dd\	om-	1ryy	1ryy	4G#X\
4E\	.	.	8ee\L	4E\	-num	.	.	.	.	.	.	.	.	4E\
.	.	.	8dd\J	.	.	.	.	.	.	8dd\	-ni-	.	.	.
4r	.	.	[2ccn\	4r	.	2r	.	.	.	2ccn\	-bus	.	.	4r
4A\	.	4e/	.	4A\	man-	.	.	4e\	-mi-	.	.	.	.	4A\
!	!	!	!	!	!	!	!	!	!	!LO:LB:g=original	!	!	!	!
=82	=82	=82	=82	=82	=82	=82	=82	=82	=82	=82	=82	=82	=82	=82
!	!	!	!	!	!	!LO:TX:a:t=2.:mod=	!	!	!	!	!	!	!	!
4F#\	6 5	2.d/	2cc\]	4F#\	-da-	0r	.	2d\	-ni	4cc\	fa-	1ryy	1ryy	4F#\
4D\	.	.	.	4D/	-vit	.	.	.	.	4cc\	-ci-	.	.	4D\
!	!	!	!	!LO:LB:g=original	!	!	!	!	!	!	!	!	!	!
4Gn\	.	.	[2b\	4Gn\	in	.	.	2r	.	4b\	-en-	.	.	4Gn\
4BB/	.	4d#X/	.	4BB/	ae-	.	.	.	.	8b\	-ti-	.	.	4BB/
.	.	.	.	.	.	.	.	.	.	8b\	-bus	.	.	.
=83	=83	=83	=83	=83	=83	=83	=83	=83	=83	=83	=83	=83	=83	=83
!	!	!	!	!	!	!	!	!LO:TX:a:t=1.:mod=	!	!	!	!	!	!
4C/	7	4e/	4b\]	4C/	.	.	.	1r	.	4b\	e-	1ryy	1ryy	4C/
4BB/	.	8a/L	8cc\L	4BB/	.	.	.	.	.	8cc\L	.	.	.	4BB/
.	.	8g/J	8b\J	.	.	.	.	.	.	8b\J	.	.	.	.
4C/	6	4f#/	4a/	4C/	-ter-	.	.	.	.	4a\	.	.	.	4C/
4AA/	.	4e/	4g/	4AA/	.	.	.	.	.	4g/	.	.	.	4AA/
=84	=84	=84	=84	=84	=84	=84	=84	=84	=84	=84	=84	=84	=84	=84
2.BB/	5 #	4d#X/	4f#/	2.BB/	-num	4r	.	4r	.	4f#/	-um	1ryy	1ryy	2.BB/
.	6 4	4g/	4b/	.	.	4B\	in	4g\	lau-	4b\	lau-	.	.	.
.	7 #	4f#/	4a/	.	.	4.B\	sae-	4f#\	-da-	4a\	-da-	.	.	.
4B\	6 4	4e/	4g/	4B\	tes-	.	.	8e\	-ti-	8g/	-ti-	.	.	4B\
.	.	.	.	.	.	8B\	-cu-	8e\	-o	8g/	-o	.	.	.
!	!	!	!	!	!	!	!	!LO:LB:g=original	!	!	!	!	!	!
=85	=85	=85	=85	=85	=85	=85	=85	=85	=85	=85	=85	=85	=85	=85
2.BB/	5 #	4d#X/	4f#/	2.BB/	.	1B	-lum	4d#X\	e-	4f#/	e-	1ryy	1ryy	2.BB/
.	6 4	4b/	4g/	.	.	.	.	4g\	-jus	4b\	-jus	.	.	.
!	!	!	!	!	!	!	!	!LO:SIC:s=(4f#	!	!	!	!	!	!
.	7 #	4a/	4f#/	.	.	.	.	4f#\	ma-	(4a\	ma-	.	.	.
!	!	!	!	!	!	!	!	!LO:SIC:s=4e)	!	!	!	!	!	!
4B\	6 4	4g/	4e/	4B\	-ta-	.	.	4e\	.	4g/)	.	.	.	4B\
=86	=86	=86	=86	=86	=86	=86	=86	=86	=86	=86	=86	=86	=86	=86
[1BB	5 #	2f#/	4d#X/	1BB	-men-	2.B\	sae-	2d#X\	-net	4f#/	-net	1ryy	1ryy	[1BB
.	.	.	4b\	.	.	.	.	.	.	8b\	glo-	.	.	.
.	.	.	.	.	.	.	.	.	.	8b\	-ri-	.	.	.
.	.	2r	4b\	.	.	.	.	2r	.	4b\	-a	.	.	.
.	.	.	4b\	.	.	4B\	-cu-	.	.	4b\	Pa-	.	.	.
!	!	!	!	!	!	!LO:LB:g=original	!	!	!	!	!	!	!	!
=87	=87	=87	=87	=87	=87	=87	=87	=87	=87	=87	=87	=87	=87	=87
1BB_	.	4r	4cc\	1BB	-tum	1B	-li	4r	.	4cc\	-tri	1ryy	1ryy	1BB_
.	.	4ee\	4cc\	.	.	.	.	2e\	et	4cc\	et	.	.	.
.	.	4ee\	4cc\	.	.	.	.	.	.	4cc\	Fi-	.	.	.
.	.	4ff#\	8dd\L	.	.	.	.	4f#\	Spi-	8dd\L	-li-	.	.	.
.	.	.	8cc\J	.	.	.	.	.	.	8cc\J	.	.	.	.
=88	=88	=88	=88	=88	=88	=88	=88	=88	=88	=88	=88	=88	=88	=88
!	!	!	!	!	!	!LO:TX:a:t=1.:mod=	!	!	!	!	!	!	!	!
1BB_	.	4gg\	4b/	1BB	su-	1r	.	2.g\	-ri-	2b\	-o	1ryy	1ryy	1BB_
.	.	4gg\	4e/	.	.	.	.	.	.	.	.	.	.	.
!	!	!LO:LB:g=original	!	!	!	!	!	!	!	!	!	!	!	!
.	.	4gg\	[2ee\	.	.	.	.	.	.	[2ee\	et	.	.	.
.	.	8ff#\L	.	.	.	.	.	8f#\	-tu-	.	.	.	.	.
.	.	8ee\J	.	.	.	.	.	8e\	-i	.	.	.	.	.
=89	=89	=89	=89	=89	=89	=89	=89	=89	=89	=89	=89	=89	=89	=89
1BB_	.	4ff#\	4ee\]	1BB	-um	1B	si-	[1f#	San-	4ee\]	.	1ryy	1ryy	1BB_
.	.	4f#/	4dd#X\	.	.	.	.	.	.	4dd#X\	Spi-	.	.	.
!	!	!	!	!	!	!	!	!	!	!LO:PB:g=original	!	!	!	!
.	.	[2ff#\	4dd#\	.	.	.	.	.	.	4dd#X\	-ri-	.	.	.
.	.	.	8ee\L	.	.	.	.	.	.	8ee\	-tu-	.	.	.
.	.	.	8ff#\J	.	.	.	.	.	.	8ff#\	-i	.	.	.
=90	=90	=90	=90	=90	=90	=90	=90	=90	=90	=90	=90	=90	=90	=90
!	!	!	!	!LO:TX:a:t=1.:mod=	!	!	!	!	!	!	!	!	!	!
1BB_	.	4ff#\]	4gg\	1r	.	1B	-cut	4f#\]	.	[1gg	San-	1ryy	1ryy	1BB_
.	.	4ee\	4g/	.	.	.	.	2e\	.	.	.	.	.	.
!	!	!	!LO:PB:g=original	!	!	!	!	!	!	!	!	!	!	!
.	.	4ee\	[2gg\	.	.	.	.	.	.	.	.	.	.	.
.	.	8ff#\L	.	.	.	.	.	8f#\L	.	.	.	.	.	.
.	.	8gg\J	.	.	.	.	.	8g\J	.	.	.	.	.	.
=91	=91	=91	=91	=91	=91	=91	=91	=91	=91	=91	=91	=91	=91	=91
1BB_	.	4aa\	4gg\]	2BB/	in	[1B	e-	[1a	.	4gg\]	.	1ryy	1ryy	1BB_
.	.	4a/	8aa\L	.	.	.	.	.	.	8aa\L	.	.	.	.
.	.	.	8gg\J	.	.	.	.	.	.	8gg\J	.	.	.	.
.	.	[2aa\	4ff#\	2BB/	prin-	.	.	.	.	4ff#\	.	.	.	.
.	.	.	4ee\	.	.	.	.	.	.	4ee\	.	.	.	.
=92	=92	=92	=92	=92	=92	=92	=92	=92	=92	=92	=92	=92	=92	=92
1BB_	.	4aa\]	2dd#X\	4.BB/	-ci-	1B]	.	4a\]	.	2dd#X\	.	1ryy	1ryy	1BB_
.	.	8gg\L	.	.	.	.	.	8g\L	.	.	.	.	.	.
.	.	8ff#\J	.	8BB/	-pi-	.	.	8f#\J	.	.	.	.	.	.
.	.	4gg\	2ee\	2BB/	-o	.	.	4g\	.	2ee\	.	.	.	.
.	.	8ff#\L	.	.	.	.	.	8f#\L	.	.	.	.	.	.
.	.	8ee\J	.	.	.	.	.	8e\J	.	.	.	.	.	.
=93	=93	=93	=93	=93	=93	=93	=93	=93	=93	=93	=93	=93	=93	=93
1BB_	.	2ff#\	4a/	2BB/	et	1B	-rat	2f#\	-cto	2dd#X\	-cto	1ryy	1ryy	1BB_
.	.	.	8g/L	.	.	.	.	.	.	.	.	.	.	.
.	.	.	8f#/J	.	.	.	.	.	.	.	.	.	.	.
.	.	2ee\	4g/	4BB/	nunc	.	.	2r	.	2r	.	.	.	.
.	.	.	8f#/L	4BB/	et	.	.	.	.	.	.	.	.	.
.	.	.	8e/J	.	.	.	.	.	.	.	.	.	.	.
=94	=94	=94	=94	=94	=94	=94	=94	=94	=94	=94	=94	=94	=94	=94
!	!	!	!	!	!	!LO:TX:a:t=2.:mod=	!	!LO:TX:a:t=2.:mod=	!	!LO:TX:a:t=2.:mod=	!	!	!	!
1BB]	.	4a/	4f#/	2BB/	sem-	0r	.	0r	.	0r	.	1ryy	1ryy	1BB]
.	.	8g/L	8e/L	.	.	.	.	.	.	.	.	.	.	.
.	.	8f#/J	8d#X/J	.	.	.	.	.	.	.	.	.	.	.
.	.	4g/	4e/	2BB/	-per	.	.	.	.	.	.	.	.	.
.	.	8f#/L	8d#X/L	.	.	.	.	.	.	.	.	.	.	.
.	.	8e/J	8c#X/J	.	.	.	.	.	.	.	.	.	.	.
!	!	!	!	!LO:LB:g=original	!	!	!	!	!	!	!	!	!	!
=95	=95	=95	=95	=95	=95	=95	=95	=95	=95	=95	=95	=95	=95	=95
!	!	!	!	!LO:TX:a:t=1.:mod=	!	!	!	!	!	!	!	!	!	!
2BB/	#	4d#X/	4d#X/	1r	.	.	.	.	.	.	.	1ryy	1ryy	2BB/
.	.	4b\	4dd#X\	.	.	.	.	.	.	.	.	.	.	.
2AA/	+4r 2	4cc#X\	4ee\	.	.	.	.	.	.	.	.	.	.	2AA/
.	.	4dd#X\	4ff#\	.	.	.	.	.	.	.	.	.	.	.
!LO:PB:g=original	!	!	!	!	!	!	!	!	!	!	!	!	!	!LO:PB:g=original
=96	=96	=96	=96	=96	=96	=96	=96	=96	=96	=96	=96	=96	=96	=96
2GG/	6	4ee\	4gg\	1G	et	1e	et	1g	et	1b	et	1ryy	1ryy	2GG/
.	.	4e/	4g/	.	.	.	.	.	.	.	.	.	.	.
[2G\	.	[2ee\	4a/	.	.	.	.	.	.	.	.	.	.	[2G\
.	.	.	4b/	.	.	.	.	.	.	.	.	.	.	.
=97	=97	=97	=97	=97	=97	=97	=97	=97	=97	=97	=97	=97	=97	=97
4G\]	2	8ee\L]	4cc\	1G	in	1e	in	1a	in	1cc	in	1ryy	1ryy	4G\]
.	.	8ff#\	.	.	.	.	.	.	.	.	.	.	.	.
4G\	.	8ee\	4a\	.	.	.	.	.	.	.	.	.	.	4G\
.	.	8dd\J	.	.	.	.	.	.	.	.	.	.	.	.
4G\	.	8ccn\L	[2aa\	.	.	.	.	.	.	.	.	.	.	4G\
.	.	8b\	.	.	.	.	.	.	.	.	.	.	.	.
8F#\L	.	8a\	.	.	.	.	.	.	.	.	.	.	.	8F#\L
8E\J	.	8g\J	.	.	.	.	.	.	.	.	.	.	.	8E\J
=98	=98	=98	=98	=98	=98	=98	=98	=98	=98	=98	=98	=98	=98	=98
4F#\	6	4dd\	8aa\L]	2.F#\	sae-	2.d\	sae-	2.a\	sae-	2.dd\	sae-	1ryy	1ryy	4F#\
.	.	.	8bb\	.	.	.	.	.	.	.	.	.	.	.
4FF#/	.	4d/	8aa\	.	.	.	.	.	.	.	.	.	.	4FF#/
.	.	.	8gg\J	.	.	.	.	.	.	.	.	.	.	.
[2F#\	.	[2dd\	8ff#\L	.	.	.	.	.	.	.	.	.	.	[2F#\
.	.	.	8ee\	.	.	.	.	.	.	.	.	.	.	.
.	.	.	8ddn\	4F#\	-cu-	4d\	-cu-	4a\	-cu-	4dd\	-cu-	.	.	.
.	.	.	8cc\J	.	.	.	.	.	.	.	.	.	.	.
!	!	!LO:PB:g=original	!	!	!	!	!	!	!	!	!	!	!	!
=99	=99	=99	=99	=99	=99	=99	=99	=99	=99	=99	=99	=99	=99	=99
4F#\]	2	8dd\L]	4b/	1F#	-la	1d	-la	1g	-la	1b	-la	1ryy	1ryy	4F#\]
.	.	8ee\	.	.	.	.	.	.	.	.	.	.	.	.
4F#\	.	8dd\	4g/	.	.	.	.	.	.	.	.	.	.	4F#\
.	.	8cc\J	.	.	.	.	.	.	.	.	.	.	.	.
4F#\	.	8b/L	[2gg\	.	.	.	.	.	.	.	.	.	.	4F#\
.	.	8a/	.	.	.	.	.	.	.	.	.	.	.	.
8E\L	.	8g/	.	.	.	.	.	.	.	.	.	.	.	8E\L
8D#X\J	.	8f#/J	.	.	.	.	.	.	.	.	.	.	.	8D#X\J
=100	=100	=100	=100	=100	=100	=100	=100	=100	=100	=100	=100	=100	=100	=100
4E\	6	4cc\	8gg\L]	2.E\	sae-	2.c\	sae-	2.g\	sae-	2.cc\	sae-	1ryy	1ryy	4E\
.	.	.	8aa\	.	.	.	.	.	.	.	.	.	.	.
4EE/	.	4c/	8gg\	.	.	.	.	.	.	.	.	.	.	4EE/
.	.	.	8ff#\J	.	.	.	.	.	.	.	.	.	.	.
[2E\	.	[2cc\	8ee\L	.	.	.	.	.	.	.	.	.	.	[2E\
.	.	.	8dd\	.	.	.	.	.	.	.	.	.	.	.
.	.	.	8cc\	4E\	-cu-	4c\	-cu-	4g\	-cu-	4cc\	-cu-	.	.	.
.	.	.	8b\J	.	.	.	.	.	.	.	.	.	.	.
!	!	!	!LO:LB:g=original	!	!	!	!	!LO:LB:g=original	!	!	!	!	!	!
=101	=101	=101	=101	=101	=101	=101	=101	=101	=101	=101	=101	=101	=101	=101
4E\]	2	8cc\L]	4a/	1E	-lo-	1c	-lo-	[1f#	-lo-	1a	-lo-	1ryy	1ryy	4E\]
.	.	8dd\	.	.	.	.	.	.	.	.	.	.	.	.
4E\	.	8cc\	4f#/	.	.	.	.	.	.	.	.	.	.	4E\
.	.	8b\J	.	.	.	.	.	.	.	.	.	.	.	.
4E\	.	8a/L	[2ff#\	.	.	.	.	.	.	.	.	.	.	4E\
.	.	8g/	.	.	.	.	.	.	.	.	.	.	.	.
8D#X/L	.	8f#/	.	.	.	.	.	.	.	.	.	.	.	8D#X/L
8C#X/J	.	8e/J	.	.	.	.	.	.	.	.	.	.	.	8C#X/J
=102	=102	=102	=102	=102	=102	=102	=102	=102	=102	=102	=102	=102	=102	=102
2.D#X\	6	4b\	8ff#\L]	1D#X	.	1B	.	1f#]	.	1b	.	1ryy	1ryy	2.D#X/
.	.	.	8gg\	.	.	.	.	.	.	.	.	.	.	.
.	.	4B/	8ff#\	.	.	.	.	.	.	.	.	.	.	.
.	.	.	8ee\J	.	.	.	.	.	.	.	.	.	.	.
.	.	2b\	8dd#X\L	.	.	.	.	.	.	.	.	.	.	.
.	.	.	8cc\	.	.	.	.	.	.	.	.	.	.	.
4D#\	.	.	8b\	.	.	.	.	.	.	.	.	.	.	4D#/
.	.	.	8a\J	.	.	.	.	.	.	.	.	.	.	.
=103	=103	=103	=103	=103	=103	=103	=103	=103	=103	=103	=103	=103	=103	=103
4E\	.	4r	4g/	2E\	-rum	2e\	-rum	2g\	-rum	2b\	-rum	1ryy	1ryy	4E\
4F#\	.	4b\	4e/	.	.	.	.	.	.	.	.	.	.	4F#\
4G\	6	[2ee\	4r	4r	.	4r	.	2r	.	4r	.	.	.	4G\
4E\	.	.	4b/	4E\	a-	4G/	a-	.	.	[4ee\	a-	.	.	4E\
=104	=104	=104	=104	=104	=104	=104	=104	=104	=104	=104	=104	=104	=104	=104
4A\	9	4ee\]	4cc\	4A\	.	4c\	.	2r	.	4ee\]	.	1ryy	1ryy	4A\
4B\	.	8ff#\L	4a/	4B\	.	4B\	.	.	.	8ff#\L	.	.	.	4B\
.	.	8gg\J	.	.	.	.	.	.	.	8gg\J	.	.	.	.
4c\	6	4ff#\	[2aa\	4c\	.	4A\	.	[2a\	a-	4ff#\	.	.	.	4c\
4A\	.	4ee\	.	4A\	.	4c\	.	.	.	4ee\	.	.	.	4A\
!	!	!	!	!	!	!	!	!	!	!LO:LB:g=original	!	!	!	!
=105	=105	=105	=105	=105	=105	=105	=105	=105	=105	=105	=105	=105	=105	=105
4B\	7 #	2dd#X\	2aa\]	2B\	-men	2B\	-men	2a\]	.	2dd#X\	.	1ryy	1ryy	4B\
4B\	.	.	.	.	.	.	.	.	.	.	.	.	.	4B\
4c\	3	[2ee\	2gg\	4c\	a-	4r	.	2g\	.	[2ee\	.	.	.	4c\
4G\	.	.	.	4G\	.	4B\	a-	.	.	.	.	.	.	4G\
!	!	!	!	!	!	!LO:LB:g=original	!	!	!	!	!	!	!	!
=106	=106	=106	=106	=106	=106	=106	=106	=106	=106	=106	=106	=106	=106	=106
4A\	6 5	2ee\]	1ff#t	4A\	.	2c\	.	1f#t	.	2ee\]	.	1ryy	1ryy	4A\
4F#\	.	.	.	4F#\	.	.	.	.	.	.	.	.	.	4F#\
4B\	#	2dd#Xt\	.	4B\	.	2B\	.	.	.	2dd#X\	.	.	.	4B\
4BB/	.	.	.	4BB/	.	.	.	.	.	.	.	.	.	4BB/
=107	=107	=107	=107	=107	=107	=107	=107	=107	=107	=107	=107	=107	=107	=107
2E\	.	4ee\	4ee\	2E\	-men	2B\	-men	2e\	-men	2ee\	-men	1ryy	1ryy	2E\
.	.	4e/	4e/	.	.	.	.	.	.	.	.	.	.	.
2r	.	4g/	4g/	2r	.	2r	.	2r	.	2r	.	.	.	2r
.	.	4b/	4b/	.	.	.	.	.	.	.	.	.	.	.
!LO:LB:g=original	!	!	!	!LO:LB:g=original	!	!	!	!	!	!	!	!	!	!LO:LB:g=original
=108	=108	=108	=108	=108	=108	=108	=108	=108	=108	=108	=108	=108	=108	=108
[1C	5	8cc\L	8ee\L	[1c	a-	1e	a-	2g\	a-	1ee	a-	1ryy	1ryy	[1C
.	.	8dd\	8ff#\	.	.	.	.	.	.	.	.	.	.	.
.	.	8cc\	8ee\	.	.	.	.	.	.	.	.	.	.	.
.	.	8b\J	8dd\J	.	.	.	.	.	.	.	.	.	.	.
.	6	8a/L	8cc\L	.	.	.	.	2a\	.	.	.	.	.	.
.	.	8g/	8b\	.	.	.	.	.	.	.	.	.	.	.
.	.	8f#/	8a\	.	.	.	.	.	.	.	.	.	.	.
.	.	8e/J	8g\J	.	.	.	.	.	.	.	.	.	.	.
=109	=109	=109	=109	=109	=109	=109	=109	=109	=109	=109	=109	=109	=109	=109
1C]	4 2	8f#/L	8a/L	1c]	.	1f#	.	1a	.	[1ddn	.	1ryy	1ryy	1C]
.	.	8d/	8f#/	.	.	.	.	.	.	.	.	.	.	.
.	.	8c#X/	8e/	.	.	.	.	.	.	.	.	.	.	.
.	.	8d/J	8f#/J	.	.	.	.	.	.	.	.	.	.	.
!	!	!LO:LB:g=original	!	!	!	!	!	!	!	!	!	!	!	!
.	.	8e/L	8g/L	.	.	.	.	.	.	.	.	.	.	.
.	.	8f#/	8a/	.	.	.	.	.	.	.	.	.	.	.
.	.	8g/	8b/	.	.	.	.	.	.	.	.	.	.	.
.	.	8a/J	8cc/J	.	.	.	.	.	.	.	.	.	.	.
=110	=110	=110	=110	=110	=110	=110	=110	=110	=110	=110	=110	=110	=110	=110
[1BB	6	8b/L	8dd\L	[1B	.	1d	.	[1g	.	1dd]	.	1ryy	1ryy	[1BB
.	.	8cc/	8ee\	.	.	.	.	.	.	.	.	.	.	.
.	.	8b/	8dd\	.	.	.	.	.	.	.	.	.	.	.
.	.	8a/J	8cc\J	.	.	.	.	.	.	.	.	.	.	.
.	.	8g/L	8b/L	.	.	.	.	.	.	.	.	.	.	.
.	.	8f#/	8a/	.	.	.	.	.	.	.	.	.	.	.
.	.	8e/	8g/	.	.	.	.	.	.	.	.	.	.	.
.	.	8d/J	8f#/J	.	.	.	.	.	.	.	.	.	.	.
=111	=111	=111	=111	=111	=111	=111	=111	=111	=111	=111	=111	=111	=111	=111
1BB]	4 2	8e/L	8g/L	1B]	.	1e	.	1g]	.	[1cc	.	1ryy	1ryy	1BB]
.	.	8c/	8e/	.	.	.	.	.	.	.	.	.	.	.
.	.	8B/	8d#X/	.	.	.	.	.	.	.	.	.	.	.
.	.	8c/J	8e/J	.	.	.	.	.	.	.	.	.	.	.
.	.	8d/L	8f#/L	.	.	.	.	.	.	.	.	.	.	.
.	.	8e/	8g/	.	.	.	.	.	.	.	.	.	.	.
.	.	8f#/	8a/	.	.	.	.	.	.	.	.	.	.	.
.	.	8g/J	8b/J	.	.	.	.	.	.	.	.	.	.	.
!	!	!	!LO:LB:g=original	!	!	!	!	!	!	!	!	!	!	!
=112	=112	=112	=112	=112	=112	=112	=112	=112	=112	=112	=112	=112	=112	=112
[1AA	6 5	8a/L	8cc\L	2A\	.	1c	.	[1f#	.	1cc]	.	1ryy	1ryy	[1AA
.	.	8b/	8dd\	.	.	.	.	.	.	.	.	.	.	.
.	.	8a/	8cc\	.	.	.	.	.	.	.	.	.	.	.
.	.	8g/J	8b\J	.	.	.	.	.	.	.	.	.	.	.
.	.	8f#/L	8a/L	[>2AA/	.	.	.	.	.	.	.	.	.	.
.	.	8e/	8g/	.	.	.	.	.	.	.	.	.	.	.
.	.	8d#X/	8f#/	.	.	.	.	.	.	.	.	.	.	.
.	.	8c/J	8e/J	.	.	.	.	.	.	.	.	.	.	.
=113	=113	=113	=113	=113	=113	=113	=113	=113	=113	=113	=113	=113	=113	=113
2AA/]	+4r 2	2B/	4d#X/	2AA/]	.	2F#/	-men	2f#\]	.	4b\	.	1ryy	1ryy	2AA/]
.	.	.	4dd#X\	.	.	.	.	.	.	4dd#X\	.	.	.	.
4GG/	6	[2e/	4ee\	4GG/	.	4B\	a-	[2e\	.	4ee\	.	.	.	4GG/
4AA/	.	.	4a/	4AA/	.	4c\	.	.	.	4a\	.	.	.	4AA/
=114	=114	=114	=114	=114	=114	=114	=114	=114	=114	=114	=114	=114	=114	=114
2BB/	6 4	2e/]	2g/	1BB	.	1B	.	2e\]	.	2g/	.	1ryy	1ryy	2BB/
2BB/	5 #	2d#X/	2f#t/	.	.	.	.	2d#X\	.	2f#/	.	.	.	2BB/
=115	=115	=115	=115	=115	=115	=115	=115	=115	=115	=115	=115	=115	=115	=115
!	!	!	!LO:SIC:s=2e|	!	!	!	!	!	!	!	!	!	!	!
2C/|	7	2e/|	2e/	2C/	-men	2B\	-men	2e\	-men	2e/	-men	1ryy	1ryy	2C/|
*	*	*	*	*	*ij	*	*ij	*	*ij	*	*ij	*	*	*
2C/|	6	2e/|	2a/|	2C/	a-	2A/	a-	2e\	a-	2a\	a-	.	.	2C/|
=116	=116	=116	=116	=116	=116	=116	=116	=116	=116	=116	=116	=116	=116	=116
!LO:SIC:s=2BB|	!	!LO:SIC:s=2d#|	!	!	!	!	!	!	!	!	!	!	!	!LO:SIC:s=2BB|
2BB/	7 #	2d#X/	2a/|	2BB/	-men	2F#/	-men	2d#X\	-men	2a\	-men	1ryy	1ryy	2BB/
*	*	*	*	*	*Xij	*	*Xij	*	*Xij	*	*Xij	*	*	*
2r	.	2r	2r	2r	.	2r	.	2r	.	2r	.	.	.	2r
=117	=117	=117	=117	=117	=117	=117	=117	=117	=117	=117	=117	=117	=117	=117
2r	.	2r	2r	2r	.	2r	.	2r	.	2r	.	1ryy	1ryy	2r
2AA/	+4r 2	2f#/	2dd#X\	2A\	a-	2B\	a-	2f#\	a-	2dd#X\	a-	.	.	2AA/
=118	=118	=118	=118	=118	=118	=118	=118	=118	=118	=118	=118	=118	=118	=118
2.GG/	6	2g/	4ee\	2.G\	.	2.B\	.	2g\	-men	4ee\	.	1ryy	1ryy	2.GG/
.	.	.	8ddn\L	.	.	.	.	.	.	8ddn\L	.	.	.	.
.	.	.	8cc\J	.	.	.	.	.	.	8cc\J	.	.	.	.
.	.	4r	4b/	.	.	.	.	4r	.	4b\	.	.	.	.
4AA/	.	4e/	4a/	4A\	.	4c\	.	4e\	a-	4a\	.	.	.	4AA/
=119	=119	=119	=119	=119	=119	=119	=119	=119	=119	=119	=119	=119	=119	=119
2BB/	6 4	2e/	2g/	2B\	-men	1B	.	2e\	.	2g/	.	1ryy	1ryy	2BB/
2BB/	5 #	2d#Xt/	2f#t/	2BB/	a-	.	.	2d#X\	.	2f#t/	.	.	.	2BB/
=120	=120	=120	=120	=120	=120	=120	=120	=120	=120	=120	=120	=120	=120	=120
2EE/	#	2e/	2e/	2E\	-men.	2B\	-men.	2e\	-men.	2e/	-men	1ryy	1ryy	2EE/
2r	.	2r	2r	2r	.	2r	.	2r	.	2r	.	.	.	2r
==	==	==	==	==	==	==	==	==	==	==	==	==	==	==
*-	*-	*-	*-	*-	*-	*-	*-	*-	*-	*-	*-	*-	*-	*-
!!!system-decoration: <s1>[(g1)][(g2)][(g3)]<s10>
!!!RDF**kern: > = above
!!!RDF**kern: | = vertical stroke
!!!ENC: Mateusz Solarz
!!!END: 2022-04-11
!!!ENC: Andrzej Kubiczek
!!!END: 2022-04-29
!!!ENC-modern: Andrzej Borzym
!!!END-modern: 2022-08-31
!!!YEC: Copyright 2022 Narodowy Instytut Fryderyka Chopina (https://polishscores.org)
!!!YEM: License CC-BY-4.0 (https://creativecommons.org/licenses/by/4.0)
